X:170
T:Steirer
C:traditionell
R:Steirer
A:Bad Ischl, Salzkammergut
B:"Pfeifermusik aus Bad Ischl", Lois Blamberger, 3. Auflage, Bad Ischl 1990
S:im buch mit der Angabe: aus der Sammlung vom Blamberger Lois
N:im buch in G, nr. 7/3
Z:abc transcription Simon Wascher
M:3/4
L:1/8
K:G
z2 |\
(gdBg) d2 | (fdcf) d2 | (fdcf) (df) | (gdBg) d2 |\
(gdBg) d2 | (fdcf) d2 | (fdcf) (df) | g2 z2 :|
V:2
z2 |\
(dBGd) B2 | (dcFd) c2 | (dcFd) (cd) | (dBGd) B2 |\
| (dBGd) B2 | (dcFd) c2 | (dcFd) (cd) | B2 z2 :|
